components/ui-node-icon/src/byExample/byExample.large.svg

<svg width="32" height="32" viewBox="0 0 32 32" fill="none" xmlns="http://www.w3.org/2000/svg">
  <g clip-path="url(#clip0_402_386)">
    <path d="M7.63494 15.1708L15.48 5.47152C16.8017 3.83734 19.4267 5.08687 18.9917 7.14317L17.8856 12.3718C17.6226 13.6154 18.5712 14.7857 19.8423 14.7857H22.3447C24.1014 14.7857 25.0047 16.8882 23.7954 18.1625L14.8771 27.5598C13.4668 29.0459 10.9997 27.7024 11.4828 25.7114L12.6503 20.9002C12.9557 19.6413 12.0021 18.4286 10.7067 18.4286H9.18996C7.50796 18.4286 6.57718 16.4786 7.63494 15.1708Z" fill="var(--tbl--colors--icons--clean--primary)"/>
  </g>
  <defs>
    <clipPath id="clip0_402_386">
      <rect width="32" height="32" fill="white"/>
    </clipPath>
  </defs>
</svg>

<svg xmlns="http://www.w3.org/2000/svg" width="32" height="32" fill="none" viewBox="0 0 32 32">
  <g clip-path="url(#a)">
    <path fill="var(--tbl--colors--icons--clean--primary)" d="m7.635 15.17 7.845-9.698c1.322-1.635 3.947-.385 3.512 1.671l-1.106 5.229a2 2 0 0 0 1.956 2.414h2.503c1.756 0 2.66 2.102 1.45 3.377l-8.918 9.397c-1.41 1.486-3.877.142-3.394-1.849l1.167-4.81a2 2 0 0 0-1.943-2.472H9.19c-1.682 0-2.613-1.95-1.555-3.258Z"/>
  </g>
  <defs>
    <clipPath id="a">
      <path fill="#fff" d="M0 0h32v32H0z"/>
    </clipPath>
  </defs>
</svg>
